groups/aromatics/azulene.svg

<?xml version='1.0' encoding='iso-8859-1'?>
<svg version='1.1' baseProfile='full'
              xmlns='http://www.w3.org/2000/svg'
                      xmlns:rdkit='http://www.rdkit.org/xml'
                      xmlns:xlink='http://www.w3.org/1999/xlink'
                  xml:space='preserve'
width='256px' height='256px' viewBox='0 0 256 256'>
<!-- END OF HEADER -->
<rect style='opacity:1.0;fill:#FFFFFF;stroke:none' width='256.0' height='256.0' x='0.0' y='0.0'> </rect>
<path class='bond-0 atom-0 atom-1' d='M 221.9,61.2 L 188.7,102.9' style='fill:none;fill-rule:evenodd;stroke:#000000;stroke-width:2.0px;stroke-linecap:butt;stroke-linejoin:miter;stroke-opacity:1' />
<path class='bond-1 atom-1 atom-2' d='M 188.7,102.9 L 211.9,151.0' style='fill:none;fill-rule:evenodd;stroke:#000000;stroke-width:2.0px;stroke-linecap:butt;stroke-linejoin:miter;stroke-opacity:1' />
<path class='bond-1 atom-1 atom-2' d='M 183.1,109.9 L 203.0,151.0' style='fill:none;fill-rule:evenodd;stroke:#000000;stroke-width:2.0px;stroke-linecap:butt;stroke-linejoin:miter;stroke-opacity:1' />
<path class='bond-2 atom-2 atom-3' d='M 211.9,151.0 L 188.8,199.1' style='fill:none;fill-rule:evenodd;stroke:#000000;stroke-width:2.0px;stroke-linecap:butt;stroke-linejoin:miter;stroke-opacity:1' />
<path class='bond-3 atom-3 atom-4' d='M 188.8,199.1 L 136.7,211.0' style='fill:none;fill-rule:evenodd;stroke:#000000;stroke-width:2.0px;stroke-linecap:butt;stroke-linejoin:miter;stroke-opacity:1' />
<path class='bond-3 atom-3 atom-4' d='M 183.2,192.2 L 138.7,202.4' style='fill:none;fill-rule:evenodd;stroke:#000000;stroke-width:2.0px;stroke-linecap:butt;stroke-linejoin:miter;stroke-opacity:1' />
<path class='bond-4 atom-4 atom-5' d='M 136.7,211.0 L 95.0,177.8' style='fill:none;fill-rule:evenodd;stroke:#000000;stroke-width:2.0px;stroke-linecap:butt;stroke-linejoin:miter;stroke-opacity:1' />
<path class='bond-5 atom-5 atom-6' d='M 95.0,177.8 L 44.2,194.3' style='fill:none;fill-rule:evenodd;stroke:#000000;stroke-width:2.0px;stroke-linecap:butt;stroke-linejoin:miter;stroke-opacity:1' />
<path class='bond-5 atom-5 atom-6' d='M 86.9,172.0 L 47.3,184.9' style='fill:none;fill-rule:evenodd;stroke:#000000;stroke-width:2.0px;stroke-linecap:butt;stroke-linejoin:miter;stroke-opacity:1' />
<path class='bond-6 atom-6 atom-7' d='M 44.2,194.3 L 12.8,151.2' style='fill:none;fill-rule:evenodd;stroke:#000000;stroke-width:2.0px;stroke-linecap:butt;stroke-linejoin:miter;stroke-opacity:1' />
<path class='bond-7 atom-7 atom-8' d='M 12.8,151.2 L 44.1,108.0' style='fill:none;fill-rule:evenodd;stroke:#000000;stroke-width:2.0px;stroke-linecap:butt;stroke-linejoin:miter;stroke-opacity:1' />
<path class='bond-7 atom-7 atom-8' d='M 22.7,151.2 L 47.2,117.4' style='fill:none;fill-rule:evenodd;stroke:#000000;stroke-width:2.0px;stroke-linecap:butt;stroke-linejoin:miter;stroke-opacity:1' />
<path class='bond-8 atom-8 atom-9' d='M 44.1,108.0 L 94.9,124.4' style='fill:none;fill-rule:evenodd;stroke:#000000;stroke-width:2.0px;stroke-linecap:butt;stroke-linejoin:miter;stroke-opacity:1' />
<path class='bond-9 atom-9 atom-10' d='M 94.9,124.4 L 136.6,91.1' style='fill:none;fill-rule:evenodd;stroke:#000000;stroke-width:2.0px;stroke-linecap:butt;stroke-linejoin:miter;stroke-opacity:1' />
<path class='bond-9 atom-9 atom-10' d='M 102.9,128.3 L 138.6,99.8' style='fill:none;fill-rule:evenodd;stroke:#000000;stroke-width:2.0px;stroke-linecap:butt;stroke-linejoin:miter;stroke-opacity:1' />
<path class='bond-10 atom-10 atom-1' d='M 136.6,91.1 L 188.7,102.9' style='fill:none;fill-rule:evenodd;stroke:#000000;stroke-width:2.0px;stroke-linecap:butt;stroke-linejoin:miter;stroke-opacity:1' />
<path class='bond-11 atom-9 atom-5' d='M 94.9,124.4 L 95.0,177.8' style='fill:none;fill-rule:evenodd;stroke:#000000;stroke-width:2.0px;stroke-linecap:butt;stroke-linejoin:miter;stroke-opacity:1' />
<path d='M 210.7,148.6 L 211.9,151.0 L 210.7,153.4' style='fill:none;stroke:#000000;stroke-width:2.0px;stroke-linecap:butt;stroke-linejoin:miter;stroke-miterlimit:10;stroke-opacity:1;' />
<path d='M 189.9,196.7 L 188.8,199.1 L 186.1,199.7' style='fill:none;stroke:#000000;stroke-width:2.0px;stroke-linecap:butt;stroke-linejoin:miter;stroke-miterlimit:10;stroke-opacity:1;' />
<path d='M 139.3,210.4 L 136.7,211.0 L 134.6,209.4' style='fill:none;stroke:#000000;stroke-width:2.0px;stroke-linecap:butt;stroke-linejoin:miter;stroke-miterlimit:10;stroke-opacity:1;' />
<path d='M 46.7,193.5 L 44.2,194.3 L 42.6,192.2' style='fill:none;stroke:#000000;stroke-width:2.0px;stroke-linecap:butt;stroke-linejoin:miter;stroke-miterlimit:10;stroke-opacity:1;' />
<path d='M 14.4,153.3 L 12.8,151.2 L 14.4,149.0' style='fill:none;stroke:#000000;stroke-width:2.0px;stroke-linecap:butt;stroke-linejoin:miter;stroke-miterlimit:10;stroke-opacity:1;' />
<path d='M 42.6,110.1 L 44.1,108.0 L 46.7,108.8' style='fill:none;stroke:#000000;stroke-width:2.0px;stroke-linecap:butt;stroke-linejoin:miter;stroke-miterlimit:10;stroke-opacity:1;' />
<path d='M 134.5,92.8 L 136.6,91.1 L 139.2,91.7' style='fill:none;stroke:#000000;stroke-width:2.0px;stroke-linecap:butt;stroke-linejoin:miter;stroke-miterlimit:10;stroke-opacity:1;' />
<path class='atom-1' d='M201.039,44.5591 C199.792,46.1252 201.88,47.7873 203.127,46.2212 C204.373,44.6552 206.461,46.3173 205.215,47.8834 C203.968,49.4494 206.056,51.1115 207.303,49.5455 C208.549,47.9795 210.638,49.6416 209.391,51.2076 C208.144,52.7737 210.232,54.4358 211.479,52.8698 C212.726,51.3037 214.814,52.9658 213.567,54.5319 C212.32,56.0979 214.409,57.76 215.655,56.194 C216.902,54.628 218.99,56.2901 217.743,57.8561 C216.497,59.4222 218.585,61.0843 219.831,59.5183 C221.078,57.9522 223.166,59.6144 221.919,61.1804 C220.673,62.7464 222.761,64.4085 224.007,62.8425 C225.254,61.2765 227.342,62.9386 226.095,64.5046 C224.849,66.0707 226.937,67.7328 228.184,66.1668 C229.43,64.6007 231.518,66.2629 230.272,67.8289 C229.025,69.3949 231.113,71.0571 232.36,69.491 C233.606,67.925 235.694,69.5871 234.448,71.1531 C233.201,72.7192 235.289,74.3813 236.536,72.8153 C237.782,71.2492 239.87,72.9114 238.624,74.4774 C237.377,76.0434 239.465,77.7056 240.712,76.1395 C241.959,74.5735 244.047,76.2356 242.8,77.8017' style='fill:none;stroke:#7F7F7F;stroke-width:2.0px;stroke-linecap:butt;stroke-linejoin:miter;stroke-opacity:1' />
</svg>

<svg height="256" viewBox="0 0 256 256" width="256" xmlns="http://www.w3.org/2000/svg"><path d="m0 0h256v256h-256z" fill="#fff"/><g fill="none" stroke-width="2"><path d="m221.9 61.2-33.2 41.7" stroke="#000"/><path d="m188.7 102.9 23.2 48.1" stroke="#000"/><path d="m183.1 109.9 19.9 41.1" stroke="#000"/><path d="m211.9 151-23.1 48.1" stroke="#000"/><path d="m188.8 199.1-52.1 11.9" stroke="#000"/><path d="m183.2 192.2-44.5 10.2" stroke="#000"/><path d="m136.7 211-41.7-33.2" stroke="#000"/><path d="m95 177.8-50.8 16.5" stroke="#000"/><path d="m86.9 172-39.6 12.9" stroke="#000"/><path d="m44.2 194.3-31.4-43.1" stroke="#000"/><path d="m12.8 151.2 31.3-43.2" stroke="#000"/><path d="m22.7 151.2 24.5-33.8" stroke="#000"/><path d="m44.1 108 50.8 16.4" stroke="#000"/><path d="m94.9 124.4 41.7-33.3" stroke="#000"/><path d="m102.9 128.3 35.7-28.5" stroke="#000"/><path d="m136.6 91.1 52.1 11.8" stroke="#000"/><path d="m94.9 124.4.1 53.4" stroke="#000"/><path d="m210.7 148.6 1.2 2.4-1.2 2.4" stroke="#000" stroke-miterlimit="10"/><path d="m189.9 196.7-1.1 2.4-2.7.6" stroke="#000" stroke-miterlimit="10"/><path d="m139.3 210.4-2.6.6-2.1-1.6" stroke="#000" stroke-miterlimit="10"/><path d="m46.7 193.5-2.5.8-1.6-2.1" stroke="#000" stroke-miterlimit="10"/><path d="m14.4 153.3-1.6-2.1 1.6-2.2" stroke="#000" stroke-miterlimit="10"/><path d="m42.6 110.1 1.5-2.1 2.6.8" stroke="#000" stroke-miterlimit="10"/><path d="m134.5 92.8 2.1-1.7 2.6.6" stroke="#000" stroke-miterlimit="10"/><path d="m201.039 44.559c-1.247 1.566.841 3.228 2.088 1.662 1.246-1.566 3.334.096 2.088 1.662-1.247 1.566.841 3.229 2.088 1.663 1.246-1.566 3.335.096 2.088 1.662s.841 3.228 2.088 1.662 3.335.096 2.088 1.662.842 3.228 2.088 1.662c1.247-1.566 3.335.096 2.088 1.662-1.246 1.566.842 3.228 2.088 1.662 1.247-1.566 3.335.096 2.088 1.662-1.246 1.566.842 3.229 2.088 1.663 1.247-1.566 3.335.096 2.088 1.662-1.246 1.566.842 3.228 2.089 1.662 1.246-1.566 3.334.096 2.088 1.662-1.247 1.566.841 3.228 2.088 1.662 1.246-1.566 3.334.096 2.088 1.662-1.247 1.566.841 3.228 2.088 1.662 1.246-1.566 3.334.096 2.088 1.662-1.247 1.566.841 3.229 2.088 1.663s3.335.096 2.088 1.662" stroke="#7f7f7f"/></g></svg>
